X:1
T:Sechs Lieder von Novalis
T:Er besucht den Klostergarten und den Kirchoff, über den letztern findet sich folgendes Gedicht
T:6. Er besucht den Klostergarten und den Kirchoff, über den letztern findet sich folgendes Gedicht
T:Louise Reichardt
T:Novalis (Georg Friedrich Freiherr von Hardenberg)
T:Sechs Lieder von Novalis, Op.4
T:OpenScore (CC0)
T:OpenScore (CC0)
C:Louise Reichardt
Z:Novalis (Georg Friedrich Freiherr von Hardenberg)
Z:OpenScore (CC0)
%%score 1 { 2 | ( 3 4 ) }
L:1/8
M:4/4
K:Eb
V:1 treble nm="Voice"
V:2 treble nm="Piano"
V:3 bass 
V:4 bass 
V:1
"^Langsam und schauerlich""_mezza voce" G3/2 G/ | G2 G2 G2 G2 | (G2{G,)} G,2 z2 G3/2 G/ | %3
w: Lobt doch|un- sre stil- len|Fe- ste, un- sre|
w: |||
w: Tief ge-|rührt von heil- ger|Gü- te und ver-|
 G2 G2 G2 G2 | (G2{G,)} G,2 z2 D3/2 D/ | E3 E F3 C | E2 D2 G3 F | F4 =A,4 | B,6 F3/2 F/ | %9
w: Gär- ten un- sre|Zim- mer das be-|que- me Haus- ge-|rä- the un- ser|Hab und|Gut. Täg- lich|
w: ||||||
w: senkt in fel'- ges|Schau- en, Steht der|Him- mel im Ge-|müth- e wol- ken-|lo- ses|Blau, Lan- ge|
 _G2 =A,2 A,2 A,2 | C2 B,2 z2 F3/2 F/ | _G2 =A,2 A,2 A,2 | C2 B,2 z2 B, B, | %13
w: kom- men neu- e|Gäs- te, die- se|früh die an- dern|spä- ter; auf den|
w: ||||
w: flie- gen- de Ge-|wän- de tra- gen|uns durch Früh- lings-|au- en und es|
"^sanft getragen" (E2 B,) B, (F2 B,) B, | G3 F E D C F | (B,6 !turn!C) D | E6 |] %17
w: wei- * ten Heer- * den|im- mer lo- dert neu- e|Le- * bens-|gluth.|
w: ||||
w: weht * in dies- * em|Lan- de nie ein Lüft- chen|kalt * und|rauh.|
V:2
 z2 |!p! [DF]2 [CE]2 D2 C2 | [CE]2 D2 z4 | [DF]2 [CE]2 D2 C2 | [CE]2 D2 z4 | %5
 [CE]2 [CE]2 [CF]2 [CF]2 | D2 D2 [_DG]2 [DG]2 | [=DF]2 [DF]2 x4 | x8 | x8 | x8 | x8 | x8 | E4 F4 | %14
 [EG]4 z2 [CF]2 | E2 E2 D2 D2 | E2 E2 !fermata!E2 |] %17
V:3
 z2 | =B,,2 C,2 F,2 E,2 | G,2 [G,=B,]2 z4 | =B,,2 C,2 F,2 E,2 | G,2 [G,=B,]2 z4 | %5
 G,2 G,2 =A,2 A,2 | [F,_B,]2 [F,B,]2 B,2 B,2 | B,2 B,2 [E,F,=A,]2 [E,F,A,]2 | %8
 [D,F,B,]2 [D,F,B,]2 [D,F,B,]2 [D,F,B,]2 | =A,2 A,2 A,2 A,2 | %10
 [_D,F,B,]2 [D,F,B,]2 [D,F,B,]2 [D,F,B,]2 | =A,2 A,2 A,2 A,2 | %12
 [_D,F,B,]2 [D,F,B,]2 [=D,F,B,]2 [D,F,A,B,]2 | [G,B,]4 [A,B,]4 | [G,B,]4 x2 A,2 | %15
 [G,B,]2 [G,B,]2 [A,B,]2 [A,B,]2 | [G,B,]2 [G,B,]2 [G,B,]2 |] %17
V:4
 x2 | G,2 G,2 [G,=B,]2 G,2 | G,,2 G,,2 x4 | G,2 G,2 [G,=B,]2 G,2 | G,,2 G,,2 x4 | %5
 C,2 C,2 F,,2 F,,2 | B,,2 B,,2 =E,2 E,2 | F,2 F,2 F,,2 F,,2 | B,,2 B,,2 B,,2 B,,2 | %9
 [B,,E,_G,]2 [B,,E,G,]2 [B,,E,G,]2 [B,,E,G,]2 | B,,2 B,,2 B,,2 B,,2 | %11
 [B,,E,_G,]2 [B,,E,G,]2 [B,,E,G,]2 [B,,E,G,]2 | B,,2 B,,2 B,,2 B,,2 | %13
 !arpeggio![E,,E,]4 !arpeggio![=D,,=D,]4 | !arpeggio![E,,E,]4 z2 A,,2 | B,,2 B,,2 B,,2 B,,2 | %16
 [E,,E,]2 [E,,E,]2 !fermata![E,,E,]2 |] %17

